X: 7258
T: Clare Shout, The
R: jig
M: 6/8
K: Dmajor
B|:AFD DED|DED B,DA,|DFA dfa|baf edB|
AFD DED|DED B,DA,|B,2 E EDE|FDD D2G:|
|:F2 A BAA|FAA BAF|GDB, BGE|d>BG edB|
F>AA BAF|ABc d2B|A>GF EDE|FDD D3:|

